X: 21492
Q: "Briskly."
M: 6/8
L: 1/8
K: D
f2e d2c | d2e f2g | e2c A2A | A3 z2f |
gfg e2f | g3  f2e | fag fed | c3 ABc |\
d2d BAG | F2G A3  | Bcd e2c | d3- d2 |]


